Yaru++/apps/symbolic/com.ozmartians.VidCutter-symbolic.svg

<svg height="16" width="16" xmlns="http://www.w3.org/2000/svg">
  <path d="m2.512 9.206c-1.508 0-1.508-.756-1.508-1.004 0-.249 0-1.005 1.508-1.005 1.507 0 1.507.756 1.507 1.005 0 .248 0 1.004-1.507 1.004zm7.423-2.131c-.243.713-.586 1.387-1.02 2.002-.139.202-.266.394-.388.621 2.271-.274 3.957-.492 3.957-.492 2.601-.489 3.516-3.013 3.516-3.013zm-4.912 1.127c0-1.258-.94-2.009-2.511-2.009-1.574 0-2.512.751-2.512 2.009 0 1.626 1.336 2.268 4.048 2.009.305-.029.565-.084.953-.126.109-.47.23-.979.356-1.503-.357.038-.334-.212-.334-.38zm1.684.514c.178 0 .342.095.431.25.089.154.089.344-.001.498-.089.154-.253.249-.431.249-.276-.001-.498-.224-.498-.499s.224-.498.499-.498zm1.488 4.727c-.177 1.496-.927 1.406-1.174 1.378-.247-.029-.998-.118-.82-1.615.177-1.496.928-1.406 1.175-1.378.246.029.997.118.819 1.615zm-.701-2.613c-.178-.021-.465-.135-.327-.547.538-1.609 1.316-1.486 2.009-3.775l1.607-6.342s-2.614.611-3.407 3.136c0 0-1.455 5.791-1.991 8.258-.578 2.662-.098 4.066 1.517 4.257 1.249.149 2.106-.695 2.292-2.256.184-1.562-.451-2.583-1.7-2.731z" fill="#808080" fill-rule="evenodd"/>
</svg>

<?xml version="1.0" encoding="UTF-8" standalone="no"?>
<svg
   xmlns:dc="http://purl.org/dc/elements/1.1/"
   xmlns:cc="http://creativecommons.org/ns#"
   xmlns:rdf="http://www.w3.org/1999/02/22-rdf-syntax-ns#"
   xmlns:svg="http://www.w3.org/2000/svg"
   xmlns="http://www.w3.org/2000/svg"
   xmlns:sodipodi="http://sodipodi.sourceforge.net/DTD/sodipodi-0.dtd"
   xmlns:inkscape="http://www.inkscape.org/namespaces/inkscape"
   width="16"
   height="16"
   version="1.1"
   id="svg4"
   sodipodi:docname="com.ozmartians.VidCutter-symbolic.svg"
   inkscape:version="0.92.4 (5da689c313, 2019-01-14)">
  <metadata
     id="metadata10">
    <rdf:RDF>
      <cc:Work
         rdf:about="">
        <dc:format>image/svg+xml</dc:format>
        <dc:type
           rdf:resource="http://purl.org/dc/dcmitype/StillImage" />
        <dc:title />
      </cc:Work>
    </rdf:RDF>
  </metadata>
  <defs
     id="defs8" />
  <sodipodi:namedview
     pagecolor="#ffffff"
     bordercolor="#666666"
     borderopacity="1"
     objecttolerance="10"
     gridtolerance="10"
     guidetolerance="10"
     inkscape:pageopacity="0"
     inkscape:pageshadow="2"
     inkscape:window-width="793"
     inkscape:window-height="480"
     id="namedview6"
     showgrid="false"
     inkscape:zoom="14.75"
     inkscape:cx="-4.8813559"
     inkscape:cy="8"
     inkscape:window-x="0"
     inkscape:window-y="27"
     inkscape:window-maximized="0"
     inkscape:current-layer="svg4" />
  <path
     fill="#444"
     fill-rule="evenodd"
     d="M 2.512 9.206 C 1.004 9.206 1.004 8.45 1.004 8.202 C 1.004 7.953 1.004 7.197 2.512 7.197 C 4.019 7.197 4.019 7.953 4.019 8.202 C 4.019 8.45 4.019 9.206 2.512 9.206 L 2.512 9.206 Z M 9.935 7.075 C 9.692 7.788 9.349 8.462 8.915 9.077 C 8.776 9.279 8.649 9.471 8.527 9.698 C 10.798 9.424 12.484 9.206 12.484 9.206 C 15.085 8.717 16 6.193 16 6.193 L 9.935 7.075 L 9.935 7.075 Z M 5.023 8.202 C 5.023 6.944 4.083 6.193 2.512 6.193 C 0.938 6.193 0 6.944 0 8.202 C 0 9.828 1.336 10.47 4.048 10.211 C 4.353 10.182 4.613 10.127 5.001 10.085 C 5.11 9.615 5.231 9.106 5.357 8.582 C 5 8.62 5.023 8.37 5.023 8.202 L 5.023 8.202 Z M 6.707 8.716 C 6.885 8.716 7.049 8.811 7.138 8.966 C 7.227 9.12 7.227 9.31 7.137 9.464 C 7.048 9.618 6.884 9.713 6.706 9.713 C 6.43 9.712 6.208 9.489 6.208 9.214 C 6.208 8.939 6.432 8.716 6.707 8.716 L 6.707 8.716 L 6.707 8.716 Z M 8.195 13.443 C 8.018 14.939 7.268 14.849 7.021 14.821 C 6.774 14.792 6.023 14.703 6.201 13.206 C 6.378 11.71 7.129 11.8 7.376 11.828 C 7.622 11.857 8.373 11.946 8.195 13.443 L 8.195 13.443 Z M 7.494 10.83 C 7.316 10.809 7.029 10.695 7.167 10.283 C 7.705 8.674 8.483 8.797 9.176 6.508 L 10.783 0.166 C 10.783 0.166 8.169 0.777 7.376 3.302 C 7.376 3.302 5.921 9.093 5.385 11.56 C 4.807 14.222 5.287 15.626 6.902 15.817 C 8.151 15.966 9.008 15.122 9.194 13.561 C 9.378 11.999 8.743 10.978 7.494 10.83 L 7.494 10.83 Z"
     id="path2"
     style="fill:#808080;fill-opacity:1" />
</svg>
